!!!COM: Scriabin, Alexander
!!!OTL: Prelude
!!!OPR: 5 Preludes
!!!OPS: 15
!!!ONM: 4
!!!ODT: 1895
!!!AGN: Prelude
**kern	**kern
*staff2	*staff1
*Ipiano	*Ipiano
*clefF4	*clefG2
*k[f#c#g#d#]	*k[f#c#g#d#]
*E:	*E:
*M3/4	*M3/4
*^	*
8ryy	8BBL	8r
=1	=1	=1
8rc	8EEJ	8r
4e 4f#	8BL	8b
.	8AJ	8cc#L
8rc	8BBL	8gg#J
4rc	8AJ 8e 8f#	8ff#L
.	8BBL	8cc#J
=2	=2	=2
8rc	8EEJ	8bbL
4G# 4e	8c#L	8cc#J
.	8BJ	8dd#L
8rc	8BBL	8eeJ
4rc	8G#J 8e 8g#	8b
.	8BBL	8bL
=3	=3	=3
2.ryy	8EEJ	8eeJ
.	8c#L 8e	8aL
.	8F#J	8cc#J
.	8AL	8f#L
.	8BBJ	8eeeJ
.	8BBL	8aL
=4	=4	=4
2.ryy	8EEJ	8eeJ
.	8BL 8e	8g#L
.	8EJ	8bJ
.	8G#L	8eL
.	8BBJ	8eeeJ
.	8BBL	8r
=5	=5	=5
8rc	8EEJ	8r
4e 4f#	8BL	8b
.	8AJ	8cc#L
8rc	8BBL	8gg#J
4rc	8AJ 8e 8f#	8ff#L
.	8BBL	8cc#J
=6	=6	=6
8rc	8EEJ	8bbL
4G# 4g#	8c#L	8cc#J
.	8BJ	8dd#L
8rc	8C#L	8eeJ
4rc	8BJ 8e 8g#	8b
.	8EL	8bL
=7	=7	=7
2.ryy	8FF#J	8dd#J
.	8BL 8c#	8g#L
.	8EJ	8cc#J
.	8G#L	8eL
.	8FF#J	8ff#J
.	8F#	8d#
=8	=8	=8
2.ryy	8EL	8c#L
.	8D#	8B
.	8F#	8c#
.	8FF#J	8d#J
.	8BBB	8b
.	8F#L	8r
=9	=9	=9
2.ryy	8BBJ	8r
.	8dnL 8f#	8b
.	8G#J	8cc#L
.	8r	8ddn
.	8r	8ff#
.	8C#L	8ccc#J
=10	=10	=10
*	*	*^
2.ryy	8G#J	8bbL	8rc
.	4dn	8ff#	[8b
.	.	8ggn	4b] 4ee#X
.	8c#L	8gg#X	.
.	8BJ	8ddn	4e#X 4g#
.	8C#L	8cc#J	.
*	*	*v	*v
=11	=11	=11
2.ryy	8FF#J	8r
.	8AL 8c#	8f#
.	8D#J	8g#L
.	8r	8a
.	8r	8cc#
.	8GG#L	8gg#J
=12	=12	=12
*	*	*^
2.ryy	8D#J	8ff#L	8rc
.	4A	8cc#	[8f#
.	.	8ddn	4f#] 4b#X
.	8G#L	8dd#X	.
.	8F#J	8a	[8B#XL 8d#
.	8D#L	8g#J	8B#J] 8f#
*	*	*v	*v
=13	=13	=13
2.ryy	8DnJ	8Bn 8f# 8g#
.	8BL 8f#	8g#
.	8G#J	8cc#L
.	8r	8b
.	8r	8ddn
.	8BL 8e#X	8g#J
=14	=14	=14
2.ryy	8C#J	8ddnL
.	8r	8cc#
.	4r	8b#X
.	.	8bn
.	8r	8a
.	8C#L	8g#J
=15	=15	=15
2.ryy	8CnJ	8r
.	8AL 8e	8f#
.	8F#J	8bL
.	8r	8a
.	8r	8ccn
.	8AL 8d#	8g#J
=16	=16	=16
2.ryy	8BBJ	8cc#XL
.	8r	8f#
.	4r	8dd#
.	.	8d#
.	8r	8ff#
.	8BBL	8bJ
=17	=17	=17
8rc	8EEJ	8r
4e 4f#	8BL	8b
.	8AJ	8cc#L
8rc	8BBL	8gg#J
4rc	8eJ 8f#	8ff#L
.	8BBL	8cc#J
=18	=18	=18
8rc	8EEJ	8bbL
4G# 4g#	8c#L	8cc#J
.	8BJ	8dd#L
8rc	8BBL	8eeJ
4rc	8G#J 8e 8g#	8b
.	8BBL	8bL
=19	=19	=19
2.ryy	8EEJ	8eeJ
.	8c#L 8e	8aL
.	8F#J	8cc#J
.	8AL	8f#L
.	8BBJ	8eeeJ
.	8BBL	8aL
=20	=20	=20
2.ryy	8EEJ	8eeJ
.	8BL 8e	8g#L
.	8EJ	8bJ
.	8G#L	8eL
.	8BBJ	8eeeJ
.	8BBL	8r
=21	=21	=21
8rc	8EEJ	8r
*clefG2	*	*
4B 4a	8eL	8ee
.	8dnJ	8ff#L
8raa	8EL	8ccc#J
4raa	8BJ 8d 8a	8bbL
*clefF4	*	*
.	8EL	8ff#J
=22	=22	=22
8rc	8AAJ	8eeeL
*clefG2	*	*
4c# 4cc#	8f#L	8ff#J
.	8eJ	8gg#L
8raa	8F#L	8aaJ
4raa	8eJ 8a 8cc#	8ee
*clefF4	*	*
.	8F#L	8eeL
=23	=23	=23
2.ryy	8BBJ	8gg#J
.	8eL 8f#	8cc#L
.	8AJ	8ff#J
.	8c#L	8aL
.	8BBJ	8bbJ
.	8B	8g#
=24	=24	=24
2.ryy	8AL	8f#L
.	8G#	8e
.	8C#	8g#
.	8FF#J	8a#XJ
.	8C# 8A#X 8e	8gg#
.	8FF#L	8eeL
=25	=25	=25
2.ryy	8BBBJ 8BB	8gg#J
.	8eL 8f#	8cc#L
.	8AnJ	8ff#J
.	8c#L	8aL
.	8BBJ	8bbJ
.	8B	8g#
=26	=26	=26
2.ryy	8AL	8f#L
.	8G#	8e
.	8B	8f#
.	8BBJ	8g#J
.	4EE	4ee
*v	*v	*
==	==
*-	*-
!!!system-decoration: {(*)}
!!!ENC: Bryan Jacob Bell
!!!END: November 2021 to April 2022
!!!PED: Konstantin Igumnov and Yakov Milstein
!!!PTL: A.N. Skryabin: Polnoe sobranie sochinenii dlia fortepiano (Muzgiz)
